X: 43255
T: Woman Of The House, The
R: reel
M: 4/4
K: Gmajor
|:DBBA ~B3A|GABd (3.f.e.f dc|(3.A.c.A GB A2 Bd|veB~B2 vgfdB|
DBBA {c}B{A}B {d}BA|GA (3.B.c.d egdB|GABG (3.A.B.A GA|BGAG EG~G2:|
|:e{a}f{e}fd veB.BA|eg{a}ge dB~B2|ef{g}fd ed (3.B.c.d|ea{g}ag eaaf|
e{a}f{e}fd veB.BA|eg{a}ge gdBA|~G3B ~A2 GA|BGAG EG~G2:|

